lunar.svg

<svg width="572" height="121" viewBox="0 0 572 121" fill="none" xmlns="http://www.w3.org/2000/svg">
  <path
    d="M109.333 19.6667C113.751 19.6667 117.333 23.2485 117.333 27.6667C117.333 32.085 113.751 35.6667 109.333 35.6667H88C83.5817 35.6667 80 32.085 80 27.6667C80 23.2485 83.5817 19.6667 88 19.6667H109.333Z"
    fill="#89B4FA"
  />
  <path
    d="M90.6667 38.333V17C90.6667 12.5817 94.2485 9 98.6667 9C103.085 9 106.667 12.5817 106.667 17V38.333C106.667 42.7513 103.085 46.333 98.6667 46.333C94.2485 46.333 90.6667 42.7513 90.6667 38.333Z"
    fill="#89B4FA"
  />
  <path
    d="M52.9633 9.08738C57.7517 8.82727 61.3379 11.7109 62.9272 15.0366C64.443 18.2089 64.4352 22.2216 62.3246 25.5962L62.3256 25.5971C59.4493 30.1992 58.2175 35.6405 58.8315 41.0327C59.4456 46.425 61.8689 51.451 65.7065 55.2886C69.544 59.126 74.5691 61.5495 79.9614 62.1636C85.3536 62.7776 90.7947 61.5458 95.3969 58.6694L95.7143 58.478C99.0108 56.5666 102.869 56.5914 105.953 58.061C109.288 59.651 112.166 63.2402 111.908 68.022L111.909 68.0229C111.325 78.8256 107.625 89.2283 101.256 97.9731C94.8873 106.718 86.1216 113.431 76.019 117.3C65.9163 121.17 54.9087 122.03 44.3276 119.777C33.7465 117.524 24.0441 112.254 16.394 104.605C8.74379 96.9556 3.4733 87.2533 1.21917 76.6723C-1.03487 66.0915 -0.17638 55.084 3.69182 44.9809C7.56005 34.8779 14.272 26.1116 23.016 19.7417C31.7597 13.372 42.1614 9.67201 52.9633 9.08738ZM44.3959 26.7221C40.1257 28.0154 36.0797 30.0196 32.4369 32.6733C26.1911 37.2233 21.3972 43.486 18.6342 50.7026C15.8713 57.9191 15.2575 65.7816 16.8676 73.3393C18.4777 80.897 22.2422 87.8268 27.7065 93.2905C33.1709 98.7543 40.1016 102.518 47.6596 104.127C55.2176 105.737 63.0801 105.123 70.2963 102.359C77.5125 99.5951 83.7734 94.7995 88.3227 88.5532C90.9751 84.9114 92.9781 80.8669 94.2709 76.5981C89.0878 78.1678 83.6046 78.6821 78.1508 78.061C69.1637 77.0375 60.7889 72.9979 54.393 66.602C47.997 60.206 43.9575 51.8305 42.934 42.8432C42.3129 37.3892 42.826 31.9055 44.3959 26.7221Z"
    fill="#89B4FA"
  />
  <path
    d="M508.579 116V36.296H533.671V116H508.579ZM533.671 72.212L523.175 64.012C525.252 54.7187 528.751 47.5027 533.671 42.364C538.591 37.2253 545.424 34.656 554.171 34.656C557.997 34.656 561.332 35.2573 564.175 36.46C567.127 37.5533 569.696 39.3027 571.883 41.708L556.959 60.568C555.865 59.3653 554.499 58.436 552.859 57.78C551.219 57.124 549.36 56.796 547.283 56.796C543.128 56.796 539.793 58.108 537.279 60.732C534.873 63.2467 533.671 67.0733 533.671 72.212Z"
    fill="#CDD6F4"
  />
  <path
    d="M444.336 117.64C437.01 117.64 430.45 115.836 424.656 112.228C418.97 108.62 414.433 103.7 411.044 97.468C407.764 91.236 406.124 84.1293 406.124 76.148C406.124 68.1667 407.764 61.06 411.044 54.828C414.433 48.596 418.97 43.676 424.656 40.068C430.45 36.46 437.01 34.656 444.336 34.656C449.693 34.656 454.504 35.6947 458.768 37.772C463.141 39.8493 466.694 42.7467 469.428 46.464C472.161 50.072 473.692 54.2267 474.02 58.928V93.368C473.692 98.0693 472.161 102.279 469.428 105.996C466.804 109.604 463.305 112.447 458.932 114.524C454.558 116.601 449.693 117.64 444.336 117.64ZM449.42 95.008C454.777 95.008 459.096 93.2587 462.376 89.76C465.656 86.152 467.296 81.6147 467.296 76.148C467.296 72.4307 466.53 69.1507 465 66.308C463.578 63.4653 461.501 61.2787 458.768 59.748C456.144 58.108 453.082 57.288 449.584 57.288C446.085 57.288 442.969 58.108 440.236 59.748C437.612 61.2787 435.48 63.4653 433.84 66.308C432.309 69.1507 431.544 72.4307 431.544 76.148C431.544 79.756 432.309 82.9813 433.84 85.824C435.37 88.6667 437.502 90.908 440.236 92.548C442.969 94.188 446.03 95.008 449.42 95.008ZM466.312 116V94.516L470.084 75.164L466.312 55.812V36.296H490.912V116H466.312Z"
    fill="#CDD6F4"
  />
  <path
    d="M369.836 116V70.572C369.836 66.4173 368.524 63.0827 365.9 60.568C363.385 57.944 360.16 56.632 356.224 56.632C353.491 56.632 351.085 57.2333 349.008 58.436C346.931 59.5293 345.291 61.1693 344.088 63.356C342.885 65.4333 342.284 67.8387 342.284 70.572L332.608 65.816C332.608 59.584 333.975 54.1173 336.708 49.416C339.441 44.7147 343.213 41.1067 348.024 38.592C352.944 35.968 358.465 34.656 364.588 34.656C370.492 34.656 375.685 36.0773 380.168 38.92C384.76 41.6533 388.368 45.316 390.992 49.908C393.616 54.5 394.928 59.5293 394.928 64.996V116H369.836ZM317.192 116V36.296H342.284V116H317.192Z"
    fill="#CDD6F4"
  />
  <path
    d="M264.21 117.804C256.884 117.804 250.379 116.328 244.694 113.376C239.118 110.315 234.744 106.16 231.574 100.912C228.403 95.5546 226.818 89.4319 226.818 82.5439V36.2959H251.91V82.2159C251.91 84.9492 252.347 87.2999 253.222 89.2679C254.206 91.2359 255.627 92.7666 257.486 93.8599C259.344 94.9532 261.586 95.4999 264.21 95.4999C267.927 95.4999 270.879 94.3519 273.066 92.0559C275.252 89.6506 276.346 86.3706 276.346 82.2159V36.2959H301.438V82.3799C301.438 89.3772 299.852 95.5546 296.682 100.912C293.511 106.16 289.138 110.315 283.562 113.376C277.986 116.328 271.535 117.804 264.21 117.804Z"
    fill="#CDD6F4"
  />
  <path d="M139.152 116V0.216064H164.9V116H139.152ZM158.996 116V93.3681H216.232V116H158.996Z" fill="#CDD6F4" />
</svg>

<svg fill="none" viewBox="0 0 572 121"><path fill="#89B4FA" d="M109.333 19.667a8 8 0 010 16H88a8 8 0 110-16h21.333z"/><path fill="#89B4FA" d="M90.667 38.333V17a8 8 0 0116 0v21.333a8 8 0 01-16 0z"/><path fill="#89B4FA" d="M52.963 9.087c4.789-.26 8.375 2.624 9.964 5.95a11.001 11.001 0 01-.602 10.56A24 24 0 0095.398 58.67l.317-.191a11.013 11.013 0 0110.239-.417c3.335 1.59 6.213 5.18 5.955 9.961h.001a56.009 56.009 0 01-35.89 49.278 55.995 55.995 0 01-59.625-12.695 56.002 56.002 0 016.622-84.863A56 56 0 0152.963 9.087zm-8.567 17.635a40 40 0 00-25.762 23.98 40 40 0 0069.689 37.851 39.995 39.995 0 005.948-11.955 39.997 39.997 0 01-16.12 1.463 40 40 0 01-33.755-51.339z"/><path fill="#CDD6F4" d="M508.579 116V36.296h25.092V116h-25.092zm25.092-43.788l-10.496-8.2c2.077-9.293 5.576-16.51 10.496-21.648 4.92-5.139 11.753-7.708 20.5-7.708 3.826 0 7.161.601 10.004 1.804 2.952 1.093 5.521 2.843 7.708 5.248l-14.924 18.86c-1.094-1.203-2.46-2.132-4.1-2.788-1.64-.656-3.499-.984-5.576-.984-4.155 0-7.49 1.312-10.004 3.936-2.406 2.515-3.608 6.341-3.608 11.48zm-89.335 45.428c-7.326 0-13.886-1.804-19.68-5.412-5.686-3.608-10.223-8.528-13.612-14.76-3.28-6.232-4.92-13.339-4.92-21.32s1.64-15.088 4.92-21.32c3.389-6.232 7.926-11.152 13.612-14.76 5.794-3.608 12.354-5.412 19.68-5.412 5.357 0 10.168 1.039 14.432 3.116 4.373 2.077 7.926 4.975 10.66 8.692 2.733 3.608 4.264 7.763 4.592 12.464v34.44c-.328 4.701-1.859 8.911-4.592 12.628-2.624 3.608-6.123 6.451-10.496 8.528-4.374 2.077-9.239 3.116-14.596 3.116zm5.084-22.632c5.357 0 9.676-1.75 12.956-5.248 3.28-3.608 4.92-8.145 4.92-13.612 0-3.717-.766-6.997-2.296-9.84-1.422-2.843-3.499-5.03-6.232-6.56-2.624-1.64-5.686-2.46-9.184-2.46-3.499 0-6.615.82-9.348 2.46-2.624 1.53-4.756 3.717-6.396 6.56-1.531 2.843-2.296 6.123-2.296 9.84 0 3.608.765 6.833 2.296 9.676 1.53 2.843 3.662 5.084 6.396 6.724 2.733 1.64 5.794 2.46 9.184 2.46zM466.312 116V94.516l3.772-19.352-3.772-19.352V36.296h24.6V116h-24.6zm-96.476 0V70.572c0-4.155-1.312-7.49-3.936-10.004-2.515-2.624-5.74-3.936-9.676-3.936-2.733 0-5.139.601-7.216 1.804-2.077 1.093-3.717 2.733-4.92 4.92-1.203 2.077-1.804 4.483-1.804 7.216l-9.676-4.756c0-6.232 1.367-11.699 4.1-16.4 2.733-4.701 6.505-8.31 11.316-10.824 4.92-2.624 10.441-3.936 16.564-3.936 5.904 0 11.097 1.421 15.58 4.264 4.592 2.733 8.2 6.396 10.824 10.988 2.624 4.592 3.936 9.621 3.936 15.088V116h-25.092zm-52.644 0V36.296h25.092V116h-25.092zm-52.982 1.804c-7.326 0-13.831-1.476-19.516-4.428-5.576-3.061-9.95-7.216-13.12-12.464-3.171-5.357-4.756-11.48-4.756-18.368V36.296h25.092v45.92c0 2.733.437 5.084 1.312 7.052.984 1.968 2.405 3.499 4.264 4.592 1.858 1.093 4.1 1.64 6.724 1.64 3.717 0 6.669-1.148 8.856-3.444 2.186-2.405 3.28-5.685 3.28-9.84v-45.92h25.092V82.38c0 6.997-1.586 13.175-4.756 18.532-3.171 5.248-7.544 9.403-13.12 12.464-5.576 2.952-12.027 4.428-19.352 4.428zM139.152 116V.216H164.9V116h-25.748zm19.844 0V93.368h57.236V116h-57.236z"/></svg>
